!!!COM: Bach, Johann Sebastian
!!!OTL: Sinfonia No. 7; in e minor; BWV 793
!! Three-part sinfonia
!! Bach-Gesellschaft edition, pp.28-29
!! Performance duration: 2:11; performance tempo: 60.5 quarter-notes per minute.
!! (Andras Schiff, piano, "Two-Part Inventions BWV 772a-786; Three-part
!! Inventions BWV 787-801" Decca 411 974-2)
**kern	**kern	**kern
*staff2	*staff1	*staff1
*M3/4	*M3/4	*M3/4
*MM60.5	*MM60.5	*MM60.5
*e:	*e:	*e:
=1	=1	=1
8E	2.r	8r
8EE	.	8b
8r	.	8ee
8B	.	8ff#
8e	.	[4gg
8d	.	.
=2	=2	=2
4.c	2.r	8gg]
.	.	8ff#
.	.	8aa
8B	.	8gg
8A	.	8ff#
8c	.	8ee
=3	=3	=3
4.B	8r	16dd#
.	.	16cc#
.	8f#	16b
.	.	16cc#
.	8b	8ddn
8A	8cc#	8ee
8G	[4dd	[4ff#
8F#	.	.
=4	=4	=4
4.E	8dd]	8ff#]
.	8cc#	8ee
.	8ee	8gg
8F#	8dd	8ff#
8G	8cc#	8ee
8E	8b	8dd
=5	=5	=5
[4F#	16a#	8cc#
.	16g#	.
.	16f#	8cc#
.	16g#	.
16F#]	8an	8ff#
16Gn	.	.
16A	8b	8ggn
16G	.	.
16F#	[4ccn	[4aa
16E	.	.
16D#	.	.
16E	.	.
=6	=6	=6
4D#	8cc]	8aa]
.	8a	8ff#
8r	8cc	8aa
8E	8b	8gg
8C	8a	8ff#
8AA	8g	8ee
=7	=7	=7
8BB	4f#	8dd#
8B	.	8ff#
8e	8r	8gg
8f#	8b	8aa
[4g	8ee	8bb
.	8ddn	8gg
=8	=8	=8
8g]	[4cc#	[4ee
8f#	.	.
8a	8cc#]	8ee]
8g	8cc#	8ee
8f#	8dd#	8ff#
8e	8ee	8gg
=9	=9	=9
8d#	4.ff#	4aa
8B	.	.
8e	.	[2gg
8dn	8b	.
8c#	8ee	.
8B	8dd	.
=10	=10	=10
4.A#	4.cc#	8gg]
.	.	8ee
.	.	8gg
8B	8dd	8ff#
8c#	8cc#	8ee
8d	8b	8dd
=11	=11	=11
16e	4.a#	4.cc#
16d	.	.
16e	.	.
16f#	.	.
8g	.	.
8f#	8b	8dd
8e	8cc#	8ee
8d	8dd	8ff#
=12	=12	=12
8c#	8ee	4gg
8B	8dd	.
8A#	4.cc#	8ff#
8F#	.	8ee
8B	.	[4dd
8An	8f#	.
=13	=13	=13
8G	2b	8dd]
8E	.	8cc#
4F#	.	8ee
.	.	8dd
4FF#	4a#	8cc#
.	.	8b
=14	=14	=14
16BB	8b	4b
16F#	.	.
16B	8B	.
16An	.	.
16G	8e	4r
16B	.	.
16G	8f#	.
16F#	.	.
16E	[4g	4r
16B	.	.
16E	.	.
16D	.	.
=15	=15	=15
16C	8g]	2.r
16G	.	.
16E	8f#	.
16D	.	.
16C	8a	.
16E	.	.
16C	8g	.
16BB	.	.
16AA	8f#	.
16BB	.	.
16C	8e	.
16AA	.	.
=16	=16	=16
16BB	4d#	8r
16G	.	.
16F#	.	8f#
16E	.	.
16Dn	8r	8b
16F#	.	.
16D	8f#	8cc#
16C#	.	.
16BB	16b	[4dd
16F#	16a	.
16BB	16g	.
16AA	16f#	.
=17	=17	=17
16GG	4.e	8dd]
16D	.	.
16BB	.	8cc#
16AA	.	.
16GG	.	8ee
16BB	.	.
16GG	8f#	8dd
16FF#	.	.
16EE	8g	8cc#
16FF#	.	.
16GG	8e	8b
16EE	.	.
=18	=18	=18
8FF#	8c#	16a#
.	.	16ff#
8F#	8F#	16ee
.	.	16dd
8A#	8c#	16cc#
.	.	16ff#
8B	8d	16cc#
.	.	16b
8c#	[4e	16a#
.	.	16cc#
8F#	.	16a#
.	.	16g#
=19	=19	=19
4B	16e]	4f#
.	16gn	.
.	16f#	.
.	16e	.
8r	16d	4r
.	16f#	.
8BB	16d	.
.	16c#	.
8C#	16B	[4ff#
.	16f#	.
8D	16B	.
.	16A	.
=20	=20	=20
4E	4G	16ff#]
.	.	16bb
.	.	16gg
.	.	16ff#
8r	4r	16ee
.	.	16gg
8F#	.	16ee
.	.	16dd
8E	[4g	16cc#
.	.	16gg
8D	.	16cc#
.	.	16b
=21	=21	=21
4C#	16g]	4a
.	16g	.
.	16e	.
.	16d	.
8r	16c#	4r
.	16e	.
8AA	16c#	.
.	16B	.
8BB	16A	[4ee
.	16e	.
8C#	16A	.
.	16G	.
=22	=22	=22
4D	4F#	16ee]
.	.	16aa
.	.	16ff#
.	.	16ee
8r	4r	16dd
.	.	16ff#
8E	.	16dd
.	.	16cc#
8D	[4f#	16b
.	.	16ff#
8C#	.	16b
.	.	16a
=23	=23	=23
16BB	8f#]	[2.g
16B	.	.
16G	16e	.
16F#	16d	.
16E	16c#	.
16G	16e	.
16E	16c#	.
16D	16B	.
16C#	8A	.
16G	.	.
16C#	8B	.
16BB	.	.
=24	=24	=24
16AA	8c#	2.g]
16E	.	.
16C#	16A	.
16BB	16B	.
16AA	8c#	.
16C#	.	.
16AA	8e	.
16GG	.	.
16FF#	8A	.
16C#	.	.
16FF#	8c#	.
16EE	.	.
=25	=25	=25
8DD	8d	8f#
8r	16D	8a
.	16E	.
4r	16F#	8dd
.	16D	.
.	16F#	8ee
.	16G	.
4r	16A	[4ff#
.	16D	.
.	16A	.
.	16B	.
=26	=26	=26
2.r	16c#	8ff#]
.	16A	.
.	16c#	8ee
.	16d	.
.	16e	8gg
.	16A	.
.	16e	8ff#
.	16f#	.
.	16g	8ee
.	16a	.
.	16b	8dd
.	16g	.
=27	=27	=27
8r	2.a	16cc#
.	.	16ee
8AA	.	16aa
.	.	16gg
8D	.	16ff#
.	.	16aa
8E	.	16ff#
.	.	16ee
[4F#	.	16dd
.	.	16aa
.	.	16dd
.	.	16cc#
=28	=28	=28
8F#]	[2.g	16b
.	.	16dd
8E	.	16gg
.	.	16ff#
8G	.	16ee
.	.	16gg
8F#	.	16ee
.	.	16dd
8E	.	16cc#
.	.	16gg
8D	.	16cc#
.	.	16b
=29	=29	=29
8C#	16g]	[2a
.	16g	.
8FF#	16f#	.
.	16e	.
8BB	16d	.
.	16f#	.
8C#	16d	.
.	16c#	.
[4D	[4B	16a]
.	.	16a
.	.	16g
.	.	16f#
=30	=30	=30
8D]	8B]	16g
.	.	16e
8C#	8r	16a#
.	.	16b
8E	4r	16cc#
.	.	16f#
8D	.	16cc#
.	.	16dd
8C#	4r	16ee
.	.	16ff#
8BB	.	16gg
.	.	16ee
=31	=31	=31
4AA#	8r	16ff#
.	.	16gg
.	8F#	16ff#
.	.	16ee
4BB	8B	16dd
.	.	16ff#
.	8c#	16dd
.	.	16cc#
8r	[4d	16b
.	.	16ffn
8D	.	16b
.	.	16a
=32	=32	=32
8E	8d]	16g#
.	.	16f#
8D	8B	16g#
.	.	16a
8Fn	8d	16b
.	.	16g#
8E	8c	16b
.	.	16cc
8D	8B	16dd
.	.	16g#
8C	8A	16dd
.	.	16ee
=33	=33	=33
8BB	8G#	16ffn
.	.	16bb
8GG#	8E	16ee
.	.	16dd
4AA	8A	16cc
.	.	16ee
.	8B	16cc
.	.	16b
8r	[4c	16a
.	.	16ee
8C	.	16a
.	.	16g
=34	=34	=34
8D	8c]	16f#
.	.	16e
8C	8A	16f#
.	.	16g
8E	8c	16a
.	.	16f#
8D	8B	16a
.	.	16b
8C	8A	16cc
.	.	16f#
8AA	8G	16cc
.	.	16dd
=35	=35	=35
8D	4.F#	16ee-
.	.	16aa
8AA	.	16ee-
.	.	16dd
8D	.	16cc
.	.	16ee-
8E	8G	16cc
.	.	16b-
[4F#	[4A	16a
.	.	16cc
.	.	16a
.	.	16g
=36	=36	=36
8F#]	8A]	16f#
.	.	16e
8E	8G	16d#
.	.	16e
8A	8c	16f#
.	.	16d
8G	8B	16f#
.	.	16g
8F#	8A	16a
.	.	16d
8E	8G	16a
.	.	16b
=37	=37	=37
4D#	4F#	8cc
.	.	8b
8r	4r	8ee
8BB	.	8ff#
8E	8r	[4gg
8Dn	8b	.
=38	=38	=38
[2.C	8ee	8gg]
.	8ddn	8ff#
.	8cc	8aa
.	8b	8gg
.	8a	8ff#
.	8g	8ee
=39	=39	=39
16C]	8f#	4dd#
16c	.	.
16B	8cc	.
16A	.	.
16G#	8b	[2ddn
16B	.	.
16G#	8a	.
16F#	.	.
16E	8g#	.
16B	.	.
16E	8b	.
16D	.	.
=40	=40	=40
16C	4e	8dd]
16Fn	.	.
16E	.	8g#
16D	.	.
16C	8f#	8a
16E	.	.
16C	8g#	8b
16BB	.	.
16AA	8a	[4cc
16E	.	.
16AA	8e	.
16GG	.	.
=41	=41	=41
16FF#	8a	8cc]
16D	.	.
16C	8b	8ee
16BB	.	.
16AA	8cc	8aa
16C	.	.
16AA	8ee	8bb
16GG	.	.
16FF#	8aa	[4ccc
16C	.	.
16FF#	8gg	.
16EE	.	.
=42	=42	=42
4DD#	4ff#	16ccc]
.	.	16bb
.	.	16aa
.	.	16gg
4r	4r	16ff#
.	.	16aa
.	.	16dd#
.	.	16ee
4r	16r	[4ff#
.	16cc	.
.	16b	.
.	16a	.
=43	=43	=43
4EE	4g	16ff#]
.	.	16bb
.	.	16dd#
.	.	16ee
2BB	8f#	4ee
.	8g	.
.	4a	4dd#
=44	=44	=44
2.EE;	2.g#;	2.ee;
====	====	====
*-	*-	*-
